src/images/vector/ethrome_logo.svg

<svg width="328" height="356" viewBox="0 0 328 356" fill="black" xmlns="http://www.w3.org/2000/svg">
<g >
<path d="M191.728 289.522H169.503V268.1C169.503 264.597 171.827 257.972 180.616 257.972C189.404 257.972 191.728 264.597 191.728 268.1V289.522ZM131.623 268.947C129.547 267.055 126.846 266.238 123.597 266.515C114.742 267.266 112.205 275.321 112.103 279.478V301.427L135.634 300.276V279.03C135.634 278.767 135.59 272.555 131.623 268.947ZM73.6701 222.192C67.1044 222.192 65.0678 229.088 64.9085 232.745L64.1647 251.708L81.5196 246.998L81.6613 230.295C81.6879 229.746 81.7189 226.704 79.5761 224.448C78.1549 222.951 76.167 222.192 73.6701 222.192ZM50.6127 229.255C43.9497 229.255 41.8821 235.813 41.7183 239.277L40.8196 258.42L55.8458 253.354L57.0456 252.946V251.739L57.8159 238.267C57.9399 237.494 58.3428 234.044 56.2575 231.568C55.3677 230.51 53.6676 229.255 50.6127 229.255ZM29.6008 241.458C27.9849 241.366 26.5504 241.84 25.4569 242.841C23.3805 244.737 23.2078 247.837 23.1946 248.284L22.4154 265.251L34.9844 259.654L35.4094 247.165C35.4404 246.717 35.4759 244.952 34.1919 243.451C33.156 242.24 31.6108 241.568 29.6008 241.454V241.458ZM96.993 215.51C89.3427 215.51 87.3194 222.876 87.3194 226.77V246.217L105.701 242.889L106.401 224.198C106.459 223.592 106.614 220.66 104.555 218.329C102.903 216.459 100.358 215.51 96.9886 215.51H96.993ZM189.984 319.618H207.002V297.932H189.984V319.618ZM327.991 262.801L163.991 356L161.348 354.499L0 262.801L2.89102 258.17L163.996 0L168.516 7.2387L328 262.801H327.991ZM288.765 231.577L192.751 162.034L191.206 164.177L287.048 233.596L290.395 234.22L288.761 231.577H288.765ZM186.026 148.957L163.991 160.972L141.957 148.957L163.991 179.541L186.026 148.957ZM163.92 192.657C163.407 192.657 162.898 192.627 162.397 192.57V241.972H165.054V192.605C164.677 192.635 164.301 192.657 163.92 192.657ZM111.607 178.746L112.728 181.191L136.542 164.054L134.997 161.912L111.603 178.746H111.607ZM130.118 155.138L128.498 152.891L103.47 160.994L104.577 163.408L130.118 155.138ZM124.132 194.905L124.637 198.689L143.249 173.369L141.624 171.108L124.137 194.905H124.132ZM134.979 226.283L137.658 226.634L151.347 184.607L149.425 181.938L134.984 226.283H134.979ZM176.219 184.98L188.47 222.459H191.263L178.141 182.311L176.219 184.975V184.98ZM220.9 223.153L224.45 223.513L186.114 171.249L184.485 173.509L220.9 223.153ZM250.509 169.673L199.281 152.965L197.665 155.208L252.656 173.141L250.509 169.668V169.673ZM233.274 141.776H201.672C201.889 142.641 202.017 143.523 202.053 144.41H234.903L233.274 141.776ZM221.874 123.33L195.93 131.649L197.422 133.94L223.299 125.643L221.874 123.334V123.33ZM211.744 106.934L190.037 122.588L191.48 124.805L213.138 109.186L211.748 106.934H211.744ZM201.264 89.9723L184.078 113.427L185.623 115.802L202.77 92.4086L201.269 89.9767L201.264 89.9723ZM176.396 101.627L178.256 104.485L189.311 70.6267L187.482 67.668L176.396 101.623V101.627ZM163.987 106.495L140.203 143.049L163.987 156.021L187.77 143.049L163.987 106.495ZM162.712 93.5149C163.11 93.4797 163.509 93.4534 163.911 93.4534C164.403 93.4534 164.885 93.4841 165.368 93.5368V31.8784L163.911 29.5211L162.712 31.4262V93.5149ZM138.605 69.7224L149.855 104.037L151.71 101.184L140.438 66.8076L138.601 69.7268L138.605 69.7224ZM124.734 91.759L142.24 115.745L143.785 113.37L126.253 89.349L124.734 91.7633V91.759ZM114.131 108.607L136.462 124.621L137.906 122.404L115.539 106.364L114.131 108.602V108.607ZM103.789 125.038L130.547 133.712L132.035 131.425L105.237 122.737L103.789 125.038ZM91.5961 144.405H125.779C125.815 143.518 125.943 142.636 126.16 141.771H93.2564L91.6006 144.405H91.5961ZM29.3086 225.831C57.3555 208.408 85.0172 199.145 102.549 196.147C100.955 191.345 96.8779 180.643 88.3952 166.745C76.1449 170.112 60.1403 182.017 53.2514 187.46L29.3086 225.831ZM28.8438 273.121C62.3229 258.49 119.873 252.613 140.637 253.012V246.7C140.637 245.181 140.212 243.697 139.402 242.415C138.295 240.655 136.312 239.658 134.235 239.812L119.506 240.879L115.229 227.705C113.494 222.376 112.847 216.832 113.303 211.23L114.06 201.937C114.1 201.45 113.95 200.972 113.64 200.594C113.206 200.063 112.511 199.808 111.833 199.927L106.162 200.915C87.5806 203.522 54.6903 214.387 22.65 236.502L7.40242 260.931L28.8438 273.117V273.121ZM95.687 311.106C119.585 308.582 160.241 309.06 171.978 309.258L171.783 308.191C170.539 301.418 164.837 296.269 157.917 295.672L148.992 294.903L140.637 264.794V258.284C131.247 258.104 113.007 259.325 93.1191 262.231C76.198 264.702 52.9592 269.114 34.6435 276.418L54.1457 287.502V285.997C54.1457 282.261 56.1557 275.145 63.7529 274.952H63.7972C66.427 274.952 67.9677 276.067 68.8 277.006C70.903 279.377 70.6551 282.858 70.571 283.595L70.2788 296.677L80.5545 302.515L80.922 282.713C80.9087 282.103 80.9308 277.362 84.2203 273.982C86.3542 271.787 89.3294 270.676 93.0572 270.676C95.5984 270.676 97.6305 271.484 99.096 273.082C101.562 275.764 101.411 279.741 101.367 280.444L101.504 302.406L83.4809 304.179L95.6825 311.115L95.687 311.106ZM177.977 341.979L172.948 314.548C163.903 314.381 128.48 313.88 103.749 315.689L137.113 334.648V334.539C137.029 333.647 136.666 328.248 140.053 324.464C142.187 322.08 145.277 320.873 149.248 320.873C153.22 320.873 156.301 322.08 158.413 324.464C161.747 328.23 161.352 333.599 161.255 334.539L161.361 348.428L164 349.929L177.981 341.984L177.977 341.979ZM226.186 314.583L205.555 278.424L201.774 253.205L145.95 255.229V264.083L153.135 289.969L158.377 290.422C167.679 291.225 175.338 298.143 177.007 307.247L182.865 339.196L226.186 314.578V314.583ZM262.52 289.342V293.933L318.118 262.336C280.792 237.81 211.624 236.011 197.333 235.91V248.096L206.334 247.771L210.668 276.686L230.799 311.966L237.962 307.897V289.346C237.962 284.921 240.53 276.554 250.244 276.554C259.957 276.554 262.525 284.921 262.525 289.346L262.52 289.342ZM275.457 252.503L257.363 248.903V264.763L275.457 266.923V252.503ZM220.709 263.49H239.344V246.871L220.709 245.405V263.49Z" fill="black"/>
</g>
</svg>

<svg xmlns="http://www.w3.org/2000/svg" width="328" height="356">
  <path d="M191.728 289.522h-22.225V268.1c0-3.503 2.324-10.128 11.113-10.128 8.788 0 11.112 6.625 11.112 10.128v21.422Zm-60.105-20.575c-2.076-1.892-4.777-2.709-8.026-2.432-8.855.751-11.392 8.806-11.494 12.963v21.949l23.531-1.151V279.03c0-.263-.044-6.475-4.011-10.083ZM73.67 222.192c-6.566 0-8.602 6.896-8.761 10.553l-.744 18.963 17.355-4.71.141-16.703c.027-.549.058-3.591-2.085-5.847-1.421-1.497-3.409-2.256-5.906-2.256Zm-23.057 7.063c-6.663 0-8.73 6.558-8.895 10.022l-.898 19.143 15.026-5.066 1.2-.408v-1.207l.77-13.472c.124-.773.527-4.223-1.559-6.699-.89-1.058-2.59-2.313-5.644-2.313ZM29.6 241.458c-1.616-.092-3.05.382-4.144 1.383-2.076 1.896-2.25 4.996-2.262 5.443l-.78 16.967 12.57-5.597.424-12.489c.031-.448.067-2.213-1.217-3.714-1.036-1.211-2.581-1.883-4.591-1.997v.004Zm67.392-25.948c-7.65 0-9.674 7.366-9.674 11.26v19.447l18.382-3.328.7-18.691c.058-.606.213-3.538-1.846-5.869-1.652-1.87-4.197-2.819-7.566-2.819h.004Zm92.991 104.108h17.018v-21.686h-17.018v21.686Zm138.007-56.817L163.99 356l-2.643-1.501L0 262.801l2.891-4.631L163.996 0l4.52 7.239L328 262.8h-.009Zm-39.226-31.224-96.014-69.543-1.545 2.143 95.842 69.419 3.347.624-1.634-2.643h.004Zm-102.739-82.62-22.035 12.015-22.034-12.015 22.034 30.584 22.035-30.584Zm-22.106 43.7c-.513 0-1.022-.03-1.523-.087v49.402h2.657v-49.367c-.377.03-.753.052-1.134.052Zm-52.313-13.911 1.121 2.445 23.814-17.137-1.545-2.142-23.394 16.834h.004Zm18.511-23.608-1.62-2.247-25.028 8.103 1.107 2.414 25.541-8.27Zm-5.986 39.767.505 3.784 18.612-25.32-1.625-2.261-17.487 23.797h-.005Zm10.847 31.378 2.679.351 13.689-42.027-1.922-2.669-14.441 44.345h-.005Zm41.24-41.303 12.251 37.479h2.793l-13.122-40.148-1.922 2.664v.005Zm44.681 38.173 3.55.36-38.336-52.264-1.629 2.26 36.415 49.644Zm29.609-53.48-51.228-16.708-1.616 2.243 54.991 17.933-2.147-3.473v.005Zm-17.235-27.897h-31.602c.217.865.345 1.747.381 2.634h32.85l-1.629-2.634Zm-11.4-18.446-25.944 8.319 1.492 2.291 25.877-8.297-1.425-2.309v-.004Zm-10.13-16.396-21.707 15.654 1.443 2.217 21.658-15.619-1.39-2.252h-.004Zm-10.48-16.962-17.186 23.455 1.545 2.375 17.147-23.393-1.501-2.432-.005-.005Zm-24.868 11.655 1.86 2.858 11.055-33.858-1.829-2.959-11.086 33.955v.004Zm-12.409 4.868-23.784 36.554 23.784 12.972 23.783-12.972-23.783-36.554Zm-1.275-12.98c.398-.035.797-.062 1.199-.062.492 0 .974.031 1.457.084V31.878l-1.457-2.357-1.199 1.905v62.089Zm-24.107-23.793 11.25 34.315 1.855-2.853-11.272-34.376-1.837 2.919.004-.005Zm-13.87 22.038 17.506 23.986 1.545-2.375-17.532-24.021-1.519 2.414v-.004Zm-10.603 16.848 22.331 16.014 1.444-2.217-22.367-16.04-1.408 2.238v.005Zm-10.342 16.431 26.758 8.674 1.488-2.287-26.798-8.688-1.448 2.301Zm-12.193 19.367h34.183c.036-.887.164-1.769.381-2.634H93.256l-1.655 2.634h-.005ZM29.31 225.831c28.046-17.423 55.708-26.686 73.24-29.684-1.594-4.802-5.671-15.504-14.154-29.402-12.25 3.367-28.255 15.272-35.144 20.715L29.31 225.831Zm-.465 47.29c33.479-14.631 91.029-20.508 111.793-20.109V246.7a8.013 8.013 0 0 0-1.235-4.285 5.602 5.602 0 0 0-5.167-2.603l-14.729 1.067-4.277-13.174a41.952 41.952 0 0 1-1.926-16.475l.757-9.293a1.87 1.87 0 0 0-.42-1.343 1.911 1.911 0 0 0-1.807-.667l-5.671.988c-18.581 2.607-51.472 13.472-83.512 35.587L7.402 260.931l21.442 12.186v.004Zm66.843 37.985c23.898-2.524 64.554-2.046 76.291-1.848l-.195-1.067c-1.244-6.773-6.946-11.922-13.866-12.519l-8.925-.769-8.355-30.109v-6.51c-9.39-.18-27.63 1.041-47.518 3.947-16.921 2.471-40.16 6.883-58.475 14.187l19.502 11.084v-1.505c0-3.736 2.01-10.852 9.607-11.045h.044c2.63 0 4.17 1.115 5.003 2.054 2.103 2.371 1.855 5.852 1.771 6.589l-.292 13.082 10.276 5.838.367-19.802c-.013-.61.009-5.351 3.298-8.731 2.134-2.195 5.11-3.306 8.837-3.306 2.541 0 4.573.808 6.039 2.406 2.466 2.682 2.315 6.659 2.271 7.362l.137 21.962-18.023 1.773 12.202 6.936.004-.009Zm82.29 30.873-5.029-27.431c-9.045-.167-44.468-.668-69.199 1.141l33.364 18.959v-.109c-.084-.892-.447-6.291 2.94-10.075 2.134-2.384 5.224-3.591 9.195-3.591 3.972 0 7.053 1.207 9.165 3.591 3.334 3.766 2.939 9.135 2.842 10.075l.106 13.889 2.639 1.501 13.981-7.945-.004-.005Zm48.209-27.396-20.631-36.159-3.781-25.219-55.824 2.024v8.854l7.185 25.886 5.242.453c9.302.803 16.961 7.721 18.63 16.825l5.858 31.949 43.321-24.618v.005Zm36.334-25.241v4.591l55.598-31.597c-37.326-24.526-106.494-26.325-120.785-26.426v12.186l9.001-.325 4.334 28.915 20.131 35.28 7.163-4.069v-18.551c0-4.425 2.568-12.792 12.282-12.792 9.713 0 12.281 8.367 12.281 12.792l-.005-.004Zm12.937-36.839-18.094-3.6v15.86l18.094 2.16v-14.42ZM220.71 263.49h18.635v-16.619l-18.635-1.466v18.085Z"/>
</svg>
